Icons/13RollControl.svg

<svg viewBox="0 0 16 16" xmlns="http://www.w3.org/2000/svg">
 <g stroke="#555"><path d="m2.6671667 2.6661667c2.6671666-2.6661667 8.0005003-2.6661667 10.6666673-.0004999 2.666166 2.6656668 2.666166 8.0000002-.0005 10.6671672-2.666667 2.667166-7.9990007 2.667166-10.6661673-.0005-2.6671667-2.667667-2.6671667-8.0000007 0-10.6661673z" fill="#fff"/><g fill="none"><path d="m9 8h6"/><path d="m4.6671666 4.6661666c1.6671666-1.6661666 5.0017229-1.6661666 6.6672784-.0006113 1.665555 1.6655552 1.665555 5.0356341.01715 6.6850397-1.6484056 1.649405-5.0160257 1.649405-6.6838104-.01838-1.6677846-1.6677843-1.6677846-4.9998818-.000618-6.6660484z"/><path d="m6.0005 5.9995c1.0005-.9995 3.0015209-.9995 4.00051-.0005105.99899.9989896.99899 2.9989986-.0010159 4.0000046-1.000006 1.0010059-2.9979497 1.0010059-3.9989719-.0000163s-1.0010222-2.9999778-.0005222-3.9994778z"/><path d="m7.3338333 7.3328333c.3338333-.3328333 1.0010519-.3328333 1.3336093-.0002759s.3325574.9991005-.0006137 1.3332716c-.333171.334171-.9986698.334171-1.3327494.0000915-.3340795-.3340796-.3340795-1.0002539-.0002462-1.3330872z"/><path d="m8 7.25c0-1.251 0-2.501 0-3.75"/><path d="m7.5 7.5c-.9999016-.8332514-1.9999017-1.6665847-3-2.5"/><path d="m8 9v3.5"/><path d="m8.5 8.5c1.0000983.8334153 2.000099 1.666749 3 2.5"/><path d="m8.5 7.5c1.0010821-.834235 2.001082-1.6675684 3-2.5"/><path d="m7.5 8.5c-.998918.8324316-1.9989175 1.665765-3 2.5"/><path d="m3.5 8h3.5"/></g></g></svg>

<?xml version="1.0" encoding="UTF-8" standalone="no"?>
<svg
   xmlns:dc="http://purl.org/dc/elements/1.1/"
   xmlns:cc="http://creativecommons.org/ns#"
   xmlns:rdf="http://www.w3.org/1999/02/22-rdf-syntax-ns#"
   xmlns:svg="http://www.w3.org/2000/svg"
   xmlns="http://www.w3.org/2000/svg"
   xmlns:sodipodi="http://sodipodi.sourceforge.net/DTD/sodipodi-0.dtd"
   xmlns:inkscape="http://www.inkscape.org/namespaces/inkscape"
   viewBox="0 0 16 16"
   version="1.1"
   id="svg10"
   sodipodi:docname="13RollControl.svg"
   inkscape:version="0.92.4 (5da689c313, 2019-01-14)"
   inkscape:export-filename="C:\Users\Kalama\Documents\GitHub\CodeLab-bb\Icons\13RollControl.32.png"
   inkscape:export-xdpi="196.0851"
   inkscape:export-ydpi="196.0851"><metadata
   id="metadata16">
  <rdf:RDF>
    <cc:Work
       rdf:about="">
      <dc:format>image/svg+xml</dc:format>
      <dc:type
         rdf:resource="http://purl.org/dc/dcmitype/StillImage" />
    </cc:Work>
  </rdf:RDF>
</metadata>
<defs
   id="defs14">
  <inkscape:path-effect
     effect="bspline"
     id="path-effect856"
     is_visible="true"
     weight="33.333333"
     steps="2"
     helper_size="0"
     apply_no_weight="true"
     apply_with_weight="true"
     only_selected="false" />
  <inkscape:path-effect
     effect="bspline"
     id="path-effect852"
     is_visible="true"
     weight="33.333333"
     steps="2"
     helper_size="0"
     apply_no_weight="true"
     apply_with_weight="true"
     only_selected="false" />
  <inkscape:path-effect
     effect="bspline"
     id="path-effect848"
     is_visible="true"
     weight="33.333333"
     steps="2"
     helper_size="0"
     apply_no_weight="true"
     apply_with_weight="true"
     only_selected="false" />
  <inkscape:path-effect
     effect="bspline"
     id="path-effect843"
     is_visible="true"
     weight="33.333333"
     steps="2"
     helper_size="0"
     apply_no_weight="true"
     apply_with_weight="true"
     only_selected="false" />
  <inkscape:path-effect
     effect="bspline"
     id="path-effect839"
     is_visible="true"
     weight="33.333333"
     steps="2"
     helper_size="0"
     apply_no_weight="true"
     apply_with_weight="true"
     only_selected="false" />
  <inkscape:path-effect
     effect="bspline"
     id="path-effect835"
     is_visible="true"
     weight="33.333333"
     steps="2"
     helper_size="0"
     apply_no_weight="true"
     apply_with_weight="true"
     only_selected="false" />
  <inkscape:path-effect
     effect="bspline"
     id="path-effect831"
     is_visible="true"
     weight="33.333333"
     steps="2"
     helper_size="0"
     apply_no_weight="true"
     apply_with_weight="true"
     only_selected="false" />
  <inkscape:path-effect
     effect="bspline"
     id="path-effect827"
     is_visible="true"
     weight="33.333333"
     steps="2"
     helper_size="0"
     apply_no_weight="true"
     apply_with_weight="true"
     only_selected="false" />
  <inkscape:path-effect
     effect="bspline"
     id="path-effect823"
     is_visible="true"
     weight="33.333333"
     steps="2"
     helper_size="0"
     apply_no_weight="true"
     apply_with_weight="true"
     only_selected="false" />
  <inkscape:path-effect
     effect="bspline"
     id="path-effect819"
     is_visible="true"
     weight="33.333333"
     steps="2"
     helper_size="0"
     apply_no_weight="true"
     apply_with_weight="true"
     only_selected="false" />
  <inkscape:path-effect
     effect="bspline"
     id="path-effect855"
     is_visible="true"
     weight="33.333333"
     steps="2"
     helper_size="0"
     apply_no_weight="true"
     apply_with_weight="true"
     only_selected="false" />
  <inkscape:path-effect
     effect="bspline"
     id="path-effect851"
     is_visible="true"
     weight="33.333333"
     steps="2"
     helper_size="0"
     apply_no_weight="true"
     apply_with_weight="true"
     only_selected="false" />
  <inkscape:path-effect
     effect="bspline"
     id="path-effect847"
     is_visible="true"
     weight="33.333333"
     steps="2"
     helper_size="0"
     apply_no_weight="true"
     apply_with_weight="true"
     only_selected="false" />
</defs>
<sodipodi:namedview
   pagecolor="#ffffff"
   bordercolor="#666666"
   borderopacity="1"
   objecttolerance="10"
   gridtolerance="10"
   guidetolerance="10"
   inkscape:pageopacity="0"
   inkscape:pageshadow="2"
   inkscape:window-width="944"
   inkscape:window-height="1002"
   id="namedview12"
   showgrid="false"
   showguides="false"
   inkscape:zoom="22.627417"
   inkscape:cx="7.3807018"
   inkscape:cy="4.6688817"
   inkscape:window-x="0"
   inkscape:window-y="0"
   inkscape:window-maximized="0"
   inkscape:current-layer="svg10" />









     /&amp;gt;
 <path
   style="fill:#ffffff;stroke:#555555;stroke-width:1px;stroke-linecap:butt;stroke-linejoin:miter;stroke-opacity:1;fill-opacity:1"
   d="M 2.6671667,2.6661667 C 5.3343333,0 10.667667,0 13.333834,2.6656668 16,5.3313336 16,10.665667 13.333334,13.332834 10.666667,16 5.3343333,16 2.6671667,13.332334 0,10.664667 0,5.3323333 2.6671667,2.6661667 Z"
   id="path845"
   inkscape:connector-curvature="0"
   inkscape:path-effect="#path-effect847"
   inkscape:original-d="m 0,0 c 5.3343333,-0.001 10.667667,-0.001 16,0 0.001,5.3313336 0.001,10.665667 0,16 C 10.666667,15.999 5.3343333,15.999 0,16 0.001,10.664667 0.001,5.3323333 0,0 Z" />
<path
   style="fill:none;stroke:#555555;stroke-width:1px;stroke-linecap:butt;stroke-linejoin:miter;stroke-opacity:1"
   d="m 9,8 h 6"
   id="path857"
   inkscape:connector-curvature="0"
   sodipodi:nodetypes="cc" />
<path
   style="fill:none;stroke:#555555;stroke-width:1px;stroke-linecap:butt;stroke-linejoin:miter;stroke-opacity:1"
   d="M 4.6671666,4.6661666 C 6.3343332,3 9.6688895,3 11.334445,4.6655553 13,6.3311105 13,9.7011894 11.351595,11.350595 9.7031894,13 6.3355693,13 4.6677846,11.332215 3,9.6644307 3,6.3323332 4.6671666,4.6661666 Z"
   id="path817"
   inkscape:connector-curvature="0"
   inkscape:path-effect="#path-effect819"
   inkscape:original-d="M 3,3 C 6.3343332,2.999 9.6688895,2.999 13,3 13.001,6.3311105 13.001,9.7011894 13,13 9.7031894,12.999 6.3355693,12.999 3,13 3.001,9.6644307 3.001,6.3323332 3,3 Z"
   sodipodi:nodetypes="ccccc" />
<path
   style="fill:none;stroke:#555555;stroke-width:1px;stroke-linecap:butt;stroke-linejoin:miter;stroke-opacity:1"
   d="M 6.0005,5.9995 C 7.001,5 9.0020209,5 10.00101,5.9989895 11,6.9979791 11,8.9979881 9.9999941,9.9989941 8.9999881,11 7.0020444,11 6.0010222,9.9989778 5,8.9979556 5,6.999 6.0005,5.9995 Z"
   id="path821"
   inkscape:connector-curvature="0"
   inkscape:path-effect="#path-effect823"
   inkscape:original-d="m 5,5 c 2.001,-0.001 4.0020209,-0.001 6,0 10e-4,1.9979791 10e-4,3.9979881 0,6 C 8.9999881,10.999 7.0020444,10.999 5,11 5.001,8.9979556 5.001,6.999 5,5 Z"
   sodipodi:nodetypes="ccccc" />
<path
   style="fill:none;stroke:#555555;stroke-width:1px;stroke-linecap:butt;stroke-linejoin:miter;stroke-opacity:1"
   d="M 7.3338333,7.3328333 C 7.6676666,7 8.3348852,7 8.6674426,7.3325574 9,7.6651148 9,8.3316579 8.6668289,8.665829 8.3336579,9 7.6681591,9 7.3340795,8.6659205 7,8.3318409 7,7.6656666 7.3338333,7.3328333 Z"
   id="path825"
   inkscape:connector-curvature="0"
   inkscape:path-effect="#path-effect827"
   inkscape:original-d="M 7,7 C 7.6676666,6.999 8.3348852,6.999 9,7 9.001,7.6651148 9.001,8.3316579 9,9 8.3336579,8.999 7.6681591,8.999 7,9 7.001,8.3318409 7.001,7.6656666 7,7 Z"
   sodipodi:nodetypes="ccccc" />
<path
   style="fill:none;stroke:#555555;stroke-width:1px;stroke-linecap:butt;stroke-linejoin:miter;stroke-opacity:1"
   d="M 8,7.25 C 8,5.999 8,4.749 8,3.5"
   id="path829"
   inkscape:connector-curvature="0"
   inkscape:path-effect="#path-effect831"
   inkscape:original-d="M 8,7.25 C 8.001,5.999 8.001,4.749 8,3.5"
   sodipodi:nodetypes="cc" />
<path
   style="fill:none;stroke:#555555;stroke-width:1px;stroke-linecap:butt;stroke-linejoin:miter;stroke-opacity:1"
   d="M 7.5,7.5 C 6.5000984,6.6667486 5.5000983,5.8334153 4.5,5"
   id="path833"
   inkscape:connector-curvature="0"
   inkscape:path-effect="#path-effect835"
   inkscape:original-d="M 7.5,7.5 C 6.501,6.6656667 5.501,5.8323333 4.5,5"
   sodipodi:nodetypes="cc" />
<path
   style="fill:none;stroke:#555555;stroke-width:1px;stroke-linecap:butt;stroke-linejoin:miter;stroke-opacity:1"
   d="m 8,9 c 0,1.165667 0,2.332334 0,3.5"
   id="path837"
   inkscape:connector-curvature="0"
   inkscape:path-effect="#path-effect839"
   inkscape:original-d="m 8,9 c 10e-4,1.165667 10e-4,2.332334 0,3.5"
   sodipodi:nodetypes="cc" />
<path
   style="fill:none;stroke:#555555;stroke-width:1px;stroke-linecap:butt;stroke-linejoin:miter;stroke-opacity:1"
   d="m 8.5,8.5 c 1.0000983,0.8334153 2.000099,1.666749 3,2.5"
   id="path841"
   inkscape:connector-curvature="0"
   inkscape:path-effect="#path-effect843"
   inkscape:original-d="m 8.5,8.5 c 1.001,0.8323333 2.001,1.665667 3,2.5"
   sodipodi:nodetypes="cc" />
<path
   style="fill:none;stroke:#555555;stroke-width:1px;stroke-linecap:butt;stroke-linejoin:miter;stroke-opacity:1"
   d="M 8.5,7.5 C 9.5010821,6.665765 10.501082,5.8324316 11.5,5"
   id="path846"
   inkscape:connector-curvature="0"
   inkscape:path-effect="#path-effect848"
   inkscape:original-d="M 8.5,7.5 C 9.5010001,6.6656666 10.501,5.8323331 11.5,5"
   sodipodi:nodetypes="cc" />
<path
   style="fill:none;stroke:#555555;stroke-width:1px;stroke-linecap:butt;stroke-linejoin:miter;stroke-opacity:1"
   d="M 7.5,8.5 C 6.501082,9.3324316 5.5010825,10.165765 4.5,11"
   id="path850"
   inkscape:connector-curvature="0"
   inkscape:path-effect="#path-effect852"
   inkscape:original-d="M 7.5,8.5 C 6.5010001,9.3323333 5.5010004,10.165666 4.5,11"
   sodipodi:nodetypes="cc" />
<path
   style="fill:none;stroke:#555555;stroke-width:1px;stroke-linecap:butt;stroke-linejoin:miter;stroke-opacity:1"
   d="M 3.5,8 C 4.6676667,8 5.8343333,8 7,8"
   id="path854"
   inkscape:connector-curvature="0"
   inkscape:path-effect="#path-effect856"
   inkscape:original-d="M 3.5,8 C 4.6676667,7.999 5.8343333,7.999 7,8"
   sodipodi:nodetypes="cc" />
</svg>
